X:239
T:Patchwork Polka
Z:Jack Campin, http://www.campin.me.uk/
F:Jack Campin's Nine-Note Tunebook
% last edit 03-02-2013
M:2/4
L:1/16
Q:1/4=124
K:F
A2C2  D2C2|ACC2 D2C2|A2F2  FGAc|B4    G4  |
B2G2  GEE2|E2C2 DCC2|B2C2  ECC2|G2^G2 A2c2|
A2C2  D2C2|ACC2 D2C2|A2F2  FGAc|B4    D4  |
B2D2  DBB2|A2C2 CFAc|BGEG  c2E2|F4    F4 ||
A2c2 =BcAF|C2F2 D2C2|A2c2 =BcAF|E4    E4  |
G2B2  ABGE|C2E2 D2C2|BCC2  cCC2|G2^G2 A2c2|
A2c2 =BcAF|C2F2 D2C2|A2c2 =BcAF|D4    D4  |
B2D2  DBB2|A2C2 CFAc|BGEG  c2E2|F4    F4 |]

